**kern	**text	**kern	**text	**kern	**text	**kern	**text
*staff4	*staff4	*staff3	*staff3	*staff2	*staff2	*staff1	*staff1
=1-	=1-	=1-	=1-	=1-	=1-	=1-	=1-
*clefF4	*	*clefGv2	*	*clefG2	*	*clefG2	*
*k[b-]	*	*k[b-]	*	*k[b-]	*	*k[b-]	*
*met(c)	*	*met(c)	*	*met(c)	*	*met(c)	*
*M4/4	*	*M4/4	*	*M4/4	*	*M4/4	*
2.F\	If	2.A/	If	2.c/	If	2.f/	If
4D\	ye	4F/	ye	4d/	ye	4f/	ye
=2	=2	=2	=2	=2	=2	=2	=2
2C/	love	2c\	love	2e/	love	2g/	love
[2F\	me,	[2c\	me,	[2f/	me,	[2a/	me,
=3	=3	=3	=3	=3	=3	=3	=3
4F\]	.	4c\]	.	4f/]	.	4a/]	.
4F\	keep	4c\	keep	4f/	keep	4a/	keep
4C/	my	4c\	my	4e/	my	4g/	my
4D\	com-	4A/	com-	4d/	com-	4f/	com-
=4	=4	=4	=4	=4	=4	=4	=4
2BB-/	-mand-	2d\	-mand-	2f/	-mand-	2b-\	-mand-
2F\_	-ments,	2c\_	-ments,	2f/_	-ments,	2a/	-ments,
=5	=5	=5	=5	=5	=5	=5	=5
1F]	.	2c\]	.	2f/]	.	4r	.
.	.	.	.	.	.	4a/	and
.	.	4r	.	2r	.	4a/	I
.	.	4A/	and	.	.	4a/	will
=6	=6	=6	=6	=6	=6	=6	=6
!!linebreak:original
1r	.	4A/	I	1r	.	2cc\	pray
.	.	4A/	will	.	.	.	.
.	.	4.d\	pray	.	.	4b-\	the
.	.	.	.	.	.	[4a/	Fa-
.	.	8c\	the	.	.	.	.
=7	=7	=7	=7	=7	=7	=7	=7
2r	.	2B-\	Fa-	4r	.	8a/L]	.
.	.	.	.	.	.	8b-/J	.
.	.	.	.	4d/	and	4g/	.
2D\	and	[2A/	-ther,	4d/	I	2a/	-ther,
.	.	.	.	4d/	will	.	.
=8	=8	=8	=8	=8	=8	=8	=8
4D\	I	2A/]	.	2f/	pray	1r	.
4D\	will	.	.	.	.	.	.
4.G\	pray	2r	.	4e/	the	.	.
.	.	.	.	[4d/	Fa-	.	.
8F\	the	.	.	.	.	.	.
=9	=9	=9	=9	=9	=9	=9	=9
2E\	Fa-	2r	.	4d/]	.	4r	.
.	.	.	.	4c/	.	4g/	and
2D\	-ther,	4r	.	4d/	-ther,	4f/	He
.	.	4B-\	and	4d/	and	4f/	shall
=10	=10	=10	=10	=10	=10	=10	=10
!!pagebreak:original
4r	.	4G/	He	4B-/	He	2.b-\	give
4G\	and	4G/	shall	4B-/	shall	.	.
4D\	He	2d\	give	2f/	give	.	.
4D\	shall	.	.	.	.	[4a/	you
=11	=11	=11	=11	=11	=11	=11	=11
2F\	give	4c\	you	4f/	you	4a/]	.
.	.	4A/	a-	4c/	a-	4f/	a-
4F\	you	2c\	-no-	4f/	-no-	4a/	-no-
4C/	a-	.	.	4e/	-ther	[4g/	-ther
=12	=12	=12	=12	=12	=12	=12	=12
4D\	-no-	8B-/L	.	4d/	com-	4g/]	.
.	.	8A/J	.	.	.	.	.
4D\	-ther	4F/	-ther	4B-/	.	2f/	com-
4C/	com-	4.G/	com-	4.c/	.	.	.
4C/	-fort-	.	.	.	.	4e/	-fort-
.	.	8G/	-fort-	8c/	-fort-	.	.
=13	=13	=13	=13	=13	=13	=13	=13
2F\	-er,	2F/	-er,	2c/	-er,	2f/	-er,
2r	.	2c\	that	2r	.	2r	.
==	==	==	==	==	==	==	==
*-	*-	*-	*-	*-	*-	*-	*-
